X: 19
T:Ton double plin (A)
R:das plin
C:Tony Upton, 7/28/01
M:4/4
L:1/8
Q:1/4=160
K:A
"F#m"FA/A/"A"Ac "C#m"G2E2|"F#m"FA/A/Ac "C#m"G2-"E"GE|
"F#m"FA/A/Ac "C#m"G2"E"E2|"F#m"FA/A/Ac "C#m"G3E||
"F#m"A>FAc "A"e2"D"d>c|"E"B/c/BAB "A"c2-"C#m"cB|
"A"c/d/c"Bm"Bc "D"d2B>c|dA"Bm"Bc "A"A3"E"E|
"F#m"A>FAc "A"e2d>c|"E"B/c/B"C#m"AB "A"c3"Bm"B|
"A"c/d/cBc "Bm"d2B>c|"D"dABc "A"A2A2||
